brandFactory_export/1.Light/Huella_1Light.svg

<?xml version="1.0" encoding="UTF-8"?>
<svg width="24px" height="24px" viewBox="0 0 24 24" version="1.1" xmlns="http://www.w3.org/2000/svg" xmlns:xlink="http://www.w3.org/1999/xlink">
    <title>1.Light/Huella_1Light</title>
    <g id="Symbols" stroke="none" stroke-width="1" fill="none" fill-rule="evenodd">
        <g id="1.Light/Huella_1Light" fill="#5CB615" fill-rule="nonzero">
            <path d="M21.2420168,5.61680672 C21.0806723,5.61680672 20.9327731,5.53613445 20.8420168,5.40504202 C19.6285714,3.61680672 17.6386555,2.14789916 15.5176471,1.4789916 C12.3546218,0.47394958 8.91596639,1.12605042 6.09579832,3.26722689 C5.28907563,3.88571429 4.54285714,4.58151261 3.87058824,5.34453782 C3.69579832,5.54285714 3.39327731,5.56302521 3.19495798,5.39159664 L3.18487395,5.38151261 C2.98319328,5.2 2.9697479,4.8907563 3.14789916,4.68571429 C3.86386555,3.87563025 4.65378151,3.13277311 5.51092437,2.47731092 C8.58655462,0.14789916 12.3411765,-0.557983193 15.8067227,0.537815126 C18.1294118,1.27394958 20.307563,2.88403361 21.6420168,4.84369748 C21.7932773,5.06890756 21.7394958,5.37142857 21.5176471,5.52941176 C21.4336134,5.58655462 21.3394958,5.61680672 21.2420168,5.61680672 Z M14.1327731,23.6571429 C14.0957983,23.6571429 14.0554622,23.6537815 14.0184874,23.6436975 C12.1159664,23.1764706 10.1630252,22.1579832 8.51596639,20.7697479 C4.85210084,17.6806723 1.9210084,10.5176471 5.4605042,5.87226891 C7.43361345,3.28403361 10.9394958,2.05378151 14.1697479,2.81008403 C14.1831933,2.81008403 19.1747899,3.58991597 20.5563025,9.38823529 C20.5731092,9.44537815 21.0773109,11.2705882 20.1394958,12.5512605 C19.5848739,13.3042017 18.6773109,13.6907563 17.4436975,13.7042017 C17.4638655,13.707563 16.5932773,13.8117647 15.7831933,13.1529412 C15.0504202,12.5613445 14.6134454,11.5630252 14.4823529,10.1915966 C14.4352941,9.70756303 14.2369748,9.32436975 13.8907563,9.05210084 C13.4336134,8.69915966 12.7344538,8.56134454 12.0151261,8.68571429 C11.7966387,8.70588235 10.2201681,8.90420168 10.0823529,10.7092437 C9.9210084,12.8201681 11.5546218,16.4067227 15.5647059,17.394958 C15.8235294,17.4756303 15.9680672,17.7546218 15.887395,18.0134454 C15.8134454,18.2487395 15.5781513,18.389916 15.3361345,18.3495798 C10.7848739,17.2201681 8.93613445,13.0756303 9.1210084,10.6285714 C9.28235294,8.48067227 11.010084,7.77478992 11.9008403,7.70420168 C12.8521008,7.53613445 13.8067227,7.74117647 14.4857143,8.26554622 C15.0470588,8.70252101 15.3831933,9.33109244 15.4537815,10.0907563 C15.5546218,11.1630252 15.8739496,11.9495798 16.3781513,12.3663866 C16.6571429,12.605042 17.0201681,12.7327731 17.3865546,12.7159664 C18.3546218,12.702521 19.0033613,12.4504202 19.3663866,11.9563025 C20.0117647,11.0789916 19.6285714,9.64705882 19.6252101,9.63361345 C18.3882353,4.45378151 14.0420168,3.77478992 13.9983193,3.77142857 C11.0773109,3.09243697 7.97815126,4.17478992 6.23361345,6.46722689 C3.0907563,10.5915966 5.85714286,17.2436975 9.14117647,20.0168067 C10.6739496,21.307563 12.4890756,22.2588235 14.2470588,22.6890756 C14.5092437,22.7563025 14.6672269,23.0184874 14.6067227,23.2806723 C14.5563025,23.4991597 14.3579832,23.6571429 14.1327731,23.6571429 L14.1327731,23.6571429 Z M14.9361345,21.1159664 C14.892437,21.1159664 14.8487395,21.1092437 14.805042,21.0957983 C11.7462185,20.2352941 8.97310924,17.9966387 7.57142857,15.2571429 C6.47226891,13.1058824 6.2907563,10.8302521 7.05378151,8.66890756 C7.85714286,6.22857143 10.5092437,4.69915966 13.2016807,5.12268908 C15.9613445,5.55294118 18.1092437,7.94285714 18.0857143,10.5647059 C18.0857143,10.8336134 17.8705882,11.0521008 17.6016807,11.0554622 L17.5983193,11.0554622 C17.3294118,11.0521008 17.1142857,10.8302521 17.1176471,10.5579832 C17.1344538,8.41344538 15.3495798,6.45042017 13.0571429,6.09411765 C10.8218487,5.7512605 8.63361345,6.99159664 7.97478992,8.98823529 C7.30252101,10.8941176 7.46386555,12.9008403 8.43865546,14.8033613 C9.71596639,17.3109244 12.2571429,19.3613445 15.0638655,20.1512605 C15.3226891,20.2252101 15.4739496,20.497479 15.4,20.7563025 C15.3462185,20.9647059 15.1546218,21.112605 14.9361345,21.1159664 L14.9361345,21.1159664 Z M17.3831933,16.1983193 C15.9747899,16.1983193 14.7882353,15.8084034 13.8403361,15.0285714 C11.7697479,13.3277311 11.6352941,10.4201681 11.6285714,10.2957983 C11.6184874,10.0268908 11.8268908,9.79831933 12.0957983,9.78487395 C12.3647059,9.77815126 12.5865546,9.98655462 12.6,10.2554622 C12.6,10.2823529 12.7277311,12.8504202 14.4554622,14.2655462 C15.5042017,15.1226891 16.9563025,15.4016807 18.7579832,15.0857143 C19.0235294,15.0285714 19.2857143,15.2 19.3428571,15.4655462 C19.4,15.7310924 19.2285714,15.9932773 18.9630252,16.0504202 C18.9495798,16.0537815 18.9361345,16.0537815 18.9260504,16.0571429 C18.4117647,16.1478992 17.897479,16.194958 17.3831933,16.1983193 L17.3831933,16.1983193 Z" id="Huella_1Light"></path>
        </g>
    </g>
</svg>

<svg width="24" height="24" viewBox="0 0 24 24" xmlns="http://www.w3.org/2000/svg"><path d="M21.242 5.617a.487.487 0 01-.4-.212c-1.213-1.788-3.203-3.257-5.324-3.926-3.163-1.005-6.602-.353-9.422 1.788A15.685 15.685 0 003.87 5.345a.482.482 0 01-.676.047l-.01-.01a.497.497 0 01-.037-.696A16.694 16.694 0 015.51 2.477C8.587.147 12.34-.558 15.807.537c2.322.737 4.5 2.347 5.835 4.307a.498.498 0 01-.124.685.487.487 0 01-.276.088zm-7.11 18.04a.443.443 0 01-.114-.013c-1.902-.468-3.855-1.486-5.502-2.874-3.664-3.09-6.595-10.252-3.055-14.898 1.973-2.588 5.478-3.818 8.709-3.062.013 0 5.005.78 6.386 6.578.017.057.521 1.883-.417 3.163-.554.753-1.462 1.14-2.695 1.153.02.004-.85.108-1.66-.551-.734-.592-1.17-1.59-1.302-2.961-.047-.484-.245-.868-.591-1.14-.457-.353-1.157-.49-1.876-.366-.218.02-1.795.218-1.933 2.023-.161 2.111 1.473 5.698 5.483 6.686a.491.491 0 01-.229.955c-4.551-1.13-6.4-5.274-6.215-7.721.161-2.148 1.89-2.854 2.78-2.925.951-.168 1.906.037 2.585.562.561.437.897 1.065.968 1.825.1 1.072.42 1.859.924 2.275.28.239.642.367 1.009.35.968-.013 1.616-.266 1.98-.76.645-.877.262-2.309.258-2.322-1.237-5.18-5.583-5.86-5.627-5.863-2.92-.679-6.02.404-7.764 2.696-3.143 4.125-.377 10.777 2.907 13.55 1.533 1.29 3.348 2.242 5.106 2.672.262.067.42.33.36.592a.489.489 0 01-.474.376zm.804-2.541a.444.444 0 01-.131-.02c-3.059-.86-5.832-3.1-7.234-5.839-1.099-2.151-1.28-4.427-.517-6.588.803-2.44 3.455-3.97 6.148-3.546 2.76.43 4.907 2.82 4.884 5.442a.49.49 0 01-.484.49h-.004a.489.489 0 01-.48-.497c.016-2.145-1.768-4.108-4.06-4.464-2.236-.343-4.424.898-5.083 2.894-.672 1.906-.511 3.913.464 5.815 1.277 2.508 3.818 4.558 6.625 5.348a.49.49 0 01.336.605.486.486 0 01-.464.36zm2.447-4.918c-1.408 0-2.595-.39-3.543-1.17-2.07-1.7-2.205-4.608-2.211-4.732a.493.493 0 01.467-.511.492.492 0 01.504.47c0 .027.128 2.595 1.855 4.01 1.05.858 2.501 1.137 4.303.82a.494.494 0 01.205.965c-.013.004-.027.004-.037.007a9.21 9.21 0 01-1.543.141z" fill="#5CB615" fill-rule="nonzero"/></svg>
